contributed-vectors/bitmask.svg

<svg width="192" height="192" version="1.1" viewBox="0 0 192 192" xmlns="http://www.w3.org/2000/svg">
 <path d="m92 20 4 80 40-80z" style="fill:#ff837d"/>
 <path d="m56 20 40 80v-80z" style="fill:#ba6561"/>
 <path d="m29.936 20c-5.5038 0-9.9355 4.4318-9.9355 9.9355v41.564l76 28.5-34.783-80h-31.281z" style="fill:#f58f8a"/>
 <path d="m29.936 20c-5.5038 0-9.9355 4.4318-9.9355 9.9355v41.564l76 28.5-34.783-80z" style="fill:#bd9aff;opacity:.25"/>
 <path d="m20.318 27.471c-0.20032 0.7889-0.31836 1.6119-0.31836 2.4648v54.064l76 16z" style="fill:#bd9aff"/>
 <path d="m20 71.5v44.5l76-16z" style="fill:#8c72bd"/>
 <path d="m20 100v32l76-32z" style="fill:#728dbe"/>
 <path d="m96 100-4 72h40z" style="fill:#71a372"/>
 <path d="m96 100 31.305 72h34.76c5.5038 0 9.9356-4.4318 9.9356-9.9356v-38.064z" style="fill:#98dc9a"/>
 <path d="m96 100 72.586 69.561c2.0908-1.8187 3.4141-4.4947 3.4141-7.4961v-38.064z" style="fill:#fff;opacity:.25"/>
 <path d="m96 100 76 28.5v-32.5z" style="fill:#e0f4e0"/>
 <path d="m130.78 20-34.783 80 76-24v-46.064c0-5.5038-4.4318-9.9355-9.9356-9.9355z" style="fill:#f8c18c"/>
 <path d="m171.68 27.471-75.682 72.529 76-28.5v-41.564c0-0.85293-0.11803-1.6759-0.31836-2.4648z" style="fill:#f9de81"/>
 <path d="m172 71.5-76 28.5h76z" style="fill:#fdf5d9"/>
 <path d="m96 100-31.305 72h31.305z" style="fill:#73ada4"/>
 <path d="m96 100-76 28.5v33.564c0 5.5038 4.4318 9.9356 9.9355 9.9356h34.76l31.305-72z" style="fill:#96dfd3"/>
 <path d="m96 100-76 28.5v33.564c0 3.0015 1.3248 5.6772 3.416 7.4961l72.584-69.561z" style="fill:#fff;opacity:.25"/>
 <path d="m60 68c-12 0-16.267 14.389-16 24 0.36994 13.328 8 32 24 32s16-12 28-12 12 12 28 12 23.63-18.672 24-32c0.26677-9.6111-4-24-16-24s-20 16-36 16-24-16-36-16zm4 22c12 0 20 10 20 10s-8.8198 4-16 4c-8 0-12-12-12-12s5.0186-2 8-2zm64 0c2.9814 0 8 2 8 2s-4 12-12 12c-7.1802 0-16-4-16-4s8-10 20-10z" style="fill:#56595b"/>
</svg>

<svg xmlns="http://www.w3.org/2000/svg" width="192" height="192"><path d="m92 20 4 80 40-80z" style="fill:#ff837d"/><path d="m56 20 40 80V20z" style="fill:#ba6561"/><path d="M29.936 20a9.914 9.914 0 0 0-9.935 9.935V71.5L96 100 61.217 20h-31.28z" style="fill:#f58f8a"/><path d="M29.936 20a9.914 9.914 0 0 0-9.935 9.935V71.5L96 100 61.217 20z" style="fill:#bd9aff;opacity:.25"/><path d="M20.318 27.471A9.99 9.99 0 0 0 20 29.936V84l76 16z" style="fill:#bd9aff"/><path d="M20 71.5V116l76-16z" style="fill:#8c72bd"/><path d="M20 100v32l76-32z" style="fill:#728dbe"/><path d="m96 100-4 72h40z" style="fill:#71a372"/><path d="m96 100 31.305 72h34.76a9.915 9.915 0 0 0 9.936-9.936V124z" style="fill:#98dc9a"/><path d="m96 100 72.586 69.561a9.897 9.897 0 0 0 3.414-7.496V124z" style="fill:#fff;opacity:.25"/><path d="m96 100 76 28.5V96z" style="fill:#e0f4e0"/><path d="m130.78 20-34.783 80 76-24V29.936a9.914 9.914 0 0 0-9.936-9.935z" style="fill:#f8c18c"/><path d="M171.68 27.471 95.998 100l76-28.5V29.936a9.99 9.99 0 0 0-.318-2.465z" style="fill:#f9de81"/><path d="M172 71.5 96 100h76z" style="fill:#fdf5d9"/><path d="m96 100-31.305 72H96z" style="fill:#73ada4"/><path d="m96 100-76 28.5v33.564A9.915 9.915 0 0 0 29.935 172h34.76l31.306-72z" style="fill:#96dfd3"/><path d="m96 100-76 28.5v33.564a9.897 9.897 0 0 0 3.416 7.496L96 100z" style="fill:#fff;opacity:.25"/><path d="M60 68c-12 0-16.267 14.389-16 24 .37 13.328 8 32 24 32s16-12 28-12 12 12 28 12 23.63-18.672 24-32c.267-9.611-4-24-16-24s-20 16-36 16-24-16-36-16zm4 22c12 0 20 10 20 10s-8.82 4-16 4c-8 0-12-12-12-12s5.019-2 8-2zm64 0c2.981 0 8 2 8 2s-4 12-12 12c-7.18 0-16-4-16-4s8-10 20-10z" style="fill:#56595b"/></svg>
